!!!COM: Corelli, Arcangelo
!!!OTL: 
!!!ONM: Opus 6, No. 6
!!!OMV: 5
!!!CDT: 1653/2/17/-1713/1/8/
!!!OCY: Italia
**kern	**kern	**kern	**kern	**kern	**kern	**kern
*clefC	*clefG	*clefG	*clefG	*clefC	*clefG	*clefG
*k[b-]	*k[b-]	*k[b-]	*k[b-]	*k[b-]	*k[b-]	*k[b-]
*d:	*d:	*d:	*d:	*d:	*d:	*d:
*M2/4	*M2/4	*M2/4	*M2/4	*M2/4	*M2/4	*M2/4
=1	=1	=1	=1	=1	=1	=1
2r	2r	2r	2r	4f	4ccc	4aa
.	.	.	.	4e	4gg	4ccc
=2	=2	=2	=2	=2	=2	=2
2r	2r	2r	2r	4.d	4aa	4.ff
.	.	.	.	.	[4ff	.
.	.	.	.	8A	.	8ccc
=3	=3	=3	=3	=3	=3	=3
2r	2r	2r	2r	8B-	4ff]	8ddd
.	.	.	.	8A	.	8ccc
.	.	.	.	8G	4ee	4bb-
.	.	.	.	8c	.	.
=4	=4	=4	=4	=4	=4	=4
2r	2r	2r	2r	2F	2ff	2aa
=5	=5	=5	=5	=5	=5	=5
8F	4cc	4cc	4aa	8F	4cc	4aa
8G	.	.	.	8G	.	.
8A	4cc	4ff	4r	8A	4ff	4r
8B	.	.	.	8B	.	.
=6	=6	=6	=6	=6	=6	=6
8c	4.cc	4r	4gg	8c	4r	4gg
8d	.	.	.	8d	.	.
8e	.	4ee	4r	8e	4ee	4r
8c	8cc	.	.	8c	.	.
=7	=7	=7	=7	=7	=7	=7
8d	4a	4r	4ff	8d	4r	4ff
8c	.	.	.	8c	.	.
8B	4g	4dd	4r	8B	4dd	4r
8G	.	.	.	8G	.	.
=8	=8	=8	=8	=8	=8	=8
8c	2g	4r	4ee	8c	4r	4ee
8d	.	.	.	8d	.	.
8e	.	4gg	4r	8e	4gg	4r
8E	.	.	.	8E	.	.
=9	=9	=9	=9	=9	=9	=9
8F	4c	4r	4aa	8F	4r	4aa
8G	.	.	.	8G	.	.
8A	4f	4ff	4r	8A	4ff	4r
8F	.	.	.	8F	.	.
=10	=10	=10	=10	=10	=10	=10
8G	4d	4r	4b	8G	4r	4b
8A	.	.	.	8G	.	.
8A	8r	4ee	[4cc	8A	4ee	[4cc
8E	8g	.	.	8E	.	.
=11	=11	=11	=11	=11	=11	=11
8F	8a	2dd	4cc]	8F	2dd	4cc]
8D	8f	.	.	8D	.	.
8G	4g	.	4b	8G	.	4b
8GG	.	.	.	8GG	.	.
=12	=12	=12	=12	=12	=12	=12
2C	2e	2cc	2cc	2C	2cc	2cc
=13	=13	=13	=13	=13	=13	=13
2r	2r	2r	2r	8r	4ee	4r
.	.	.	.	8c	.	.
.	.	.	.	8e	4r	4gg
.	.	.	.	8c	.	.
=14	=14	=14	=14	=14	=14	=14
2r	2r	2r	2r	8B	4dd	4r
.	.	.	.	8G	.	.
.	.	.	.	8B	4r	4gg
.	.	.	.	8G	.	.
=15	=15	=15	=15	=15	=15	=15
2r	2r	2r	2r	8r	4ee	4r
.	.	.	.	8c	.	.
.	.	.	.	8e	4r	4gg
.	.	.	.	8c	.	.
=16	=16	=16	=16	=16	=16	=16
2r	2r	2r	2r	8B	4dd	4r
.	.	.	.	8G	.	.
.	.	.	.	8B	4r	4gg
.	.	.	.	8G	.	.
=17	=17	=17	=17	=17	=17	=17
2r	2r	2r	2r	8r	4ff	4r
.	.	.	.	8d	.	.
.	.	.	.	8f	4r	4aa
.	.	.	.	8d	.	.
=18	=18	=18	=18	=18	=18	=18
2r	2r	2r	2r	8c#	4ee	4r
.	.	.	.	8A	.	.
.	.	.	.	8c#	4r	4aa
.	.	.	.	8A	.	.
=19	=19	=19	=19	=19	=19	=19
2r	2r	2r	2r	8r	4ff	4r
.	.	.	.	8d	.	.
.	.	.	.	8f	4r	4aa
.	.	.	.	8d	.	.
=20	=20	=20	=20	=20	=20	=20
2r	2r	2r	2r	8c#	4ee	4r
.	.	.	.	8A	.	.
.	.	.	.	8c#	4r	4aa
.	.	.	.	8A	.	.
=21	=21	=21	=21	=21	=21	=21
4d	4dd	4ff	4bb-	8d	4ff	4bb-
.	.	.	.	8D	.	.
4c	4a	4ee	4aa	8c	4ee	4aa
.	.	.	.	8C	.	.
=22	=22	=22	=22	=22	=22	=22
4B-	4b-	4dd	4gg	8B-	4dd	4gg
.	.	.	.	8BB-	.	.
4A	4f	4cc	4ff	8A	4cc	4ff
.	.	.	.	8AA	.	.
=23	=23	=23	=23	=23	=23	=23
4G	4g	4b-	4ee-	8G	4b-	4ee-
.	.	.	.	8GG	.	.
4F	4d	4a	4dd	8F	4a	4dd
.	.	.	.	8FF	.	.
=24	=24	=24	=24	=24	=24	=24
4E	4e	4g	4cc#	4E	4g	4cc#
4D	8f	8f	[4dd	4D	8f	[4dd
.	8g	8e	.	.	8e	.
=25	=25	=25	=25	=25	=25	=25
4A	4.a	4f	4dd]	4A	4f	4dd]
4AA	.	4e	4cc#	4AA	4e	4cc#
.	8a	.	.	.	.	.
=26	=26	=26	=26	=26	=26	=26
4D	4a	4r	4dd	4D	4r	4dd
4r	4r	4d	4f	4r	4d	4f
=27	=27	=27	=27	=27	=27	=27
2r	2r	4c#	4e	2r	4c#	4e
.	.	4c	4a	.	4c	4a
=28	=28	=28	=28	=28	=28	=28
2r	4r	4B	4d	2r	4B	4d
.	4d	4B-	[4g	.	4B-	[4g
=29	=29	=29	=29	=29	=29	=29
2r	4c#	4A	8g]	2r	4A	8g]
.	.	.	8a	.	.	8a
.	[4d	4d	8f	.	4d	8f
.	.	.	8e	.	.	8e
=30	=30	=30	=30	=30	=30	=30
2r	4d]	4G	4f	2r	4G	4f
.	4c#	4A	4e	.	4A	4e
=31	=31	=31	=31	=31	=31	=31
4r	4d	4d	8d	4r	4d	8d
.	.	.	8aa	.	.	8aa
4d	4a	4r	8ff	4d	4r	8ff
.	.	.	8dd	.	.	8dd
=32	=32	=32	=32	=32	=32	=32
4c#	4a	2r	8ee	4c#	2r	8ee
.	.	.	8a	.	.	8a
4A	4a	.	8ee	4A	.	8ee
.	.	.	8aa	.	.	8aa
=33	=33	=33	=33	=33	=33	=33
4r	4r	8r	4ff	4r	8r	4ff
.	.	8aa	.	.	8aa	.
4D	4A	8ff	4r	4D	8ff	4r
.	.	8dd	.	.	8dd	.
=34	=34	=34	=34	=34	=34	=34
4C#	4A	8ee	4a	4C#	8ee	4a
.	.	8a	.	.	8a	.
4AA	4A	8ee	4r	4AA	8ee	4r
.	.	8aa	.	.	8aa	.
=35	=35	=35	=35	=35	=35	=35
4r	4r	4ff	8r	4r	4ff	8r
.	.	.	8ddd	.	.	8ddd
4g	4dd	4r	8bb-	4g	4r	8bb-
.	.	.	8gg	.	.	8gg
=36	=36	=36	=36	=36	=36	=36
4f#	4dd	4dd	8aa	4f#	4dd	8aa
.	.	.	8dd	.	.	8dd
4d	4dd	4r	8aa	4d	4r	8aa
.	.	.	8ddd	.	.	8ddd
=37	=37	=37	=37	=37	=37	=37
4r	4r	8r	4bb-	4r	8r	4bb-
.	.	8ddd	.	.	8ddd	.
4G	4d	8bb-	4r	4G	8bb-	4r
.	.	8gg	.	.	8gg	.
=38	=38	=38	=38	=38	=38	=38
4F#	4d	8aa	4dd	4F#	8aa	4dd
.	.	8dd	.	.	8dd	.
4D	4d	8aa	4r	4D	8aa	4r
.	.	8ddd	.	.	8ddd	.
=39	=39	=39	=39	=39	=39	=39
4r	4r	4bb-	4r	4r	4bb-	4r
4BB-	4g	4r	[4ddd	4BB-	4r	[4ddd
=40	=40	=40	=40	=40	=40	=40
4C	4.g	2eee-	4ddd]	4C	2eee-	4ddd]
4c	.	.	[4ccc	4c	.	[4ccc
.	8cc	.	.	.	.	.
=41	=41	=41	=41	=41	=41	=41
4d	4a	4ff#	4ccc]	4d	4ff#	4ccc]
4G	8b-	[4gg	8bb-	4G	[4gg	8bb-
.	8cc	.	8aa	.	.	8aa
=42	=42	=42	=42	=42	=42	=42
4d	4.dd	4gg]	4bb-	4d	4gg]	4bb-
4D	.	4ff#	4aa	4D	4ff#	4aa
.	8dd	.	.	.	.	.
=43	=43	=43	=43	=43	=43	=43
4G	4dd	4gg	4gg	4G	4gg	4gg
4r	4r	4g	4b-	4r	4g	4b-
=44	=44	=44	=44	=44	=44	=44
2r	2r	4f#	4a	2r	4f#	4a
.	.	4f	4dd	.	4f	4dd
=45	=45	=45	=45	=45	=45	=45
2r	4r	4e	4g	2r	4e	4g
.	4g	4e-	[4cc	.	4e-	[4cc
=46	=46	=46	=46	=46	=46	=46
2r	4f#	4d	8cc]	2r	4d	8cc]
.	.	.	8dd	.	.	8dd
.	[4g	4g	8b-	.	4g	8b-
.	.	.	8a	.	.	8a
=47	=47	=47	=47	=47	=47	=47
2r	4g]	4c	4b-	2r	4c	4b-
.	4f#	4d	4a	.	4d	4a
=48	=48	=48	=48	=48	=48	=48
4r	4g	4G	8g	4r	4G	8g
.	.	.	8dd	.	.	8dd
4G	4d	4r	8gg	4G	4r	8gg
.	.	.	8dd	.	.	8dd
=49	=49	=49	=49	=49	=49	=49
4F#	4d	2r	8aa	4F#	2r	8aa
.	.	.	8dd	.	.	8dd
4D	4d	.	8aa	4D	.	8aa
.	.	.	8dd	.	.	8dd
=50	=50	=50	=50	=50	=50	=50
4r	4r	8r	4bb-	4r	8r	4bb-
.	.	8dd	.	.	8dd	.
4G	4d	8gg	4r	4G	8gg	4r
.	.	8dd	.	.	8dd	.
=51	=51	=51	=51	=51	=51	=51
4F#	4d	8aa	4dd	4F#	8aa	4dd
.	.	8dd	.	.	8dd	.
4D	4d	8aa	4r	4D	8aa	4r
.	.	8dd	.	.	8dd	.
=52	=52	=52	=52	=52	=52	=52
4G	4d	4bb-	4dd	4G	4bb-	4dd
4F	4d	4aa	4r	4F	4aa	4r
=53	=53	=53	=53	=53	=53	=53
4E	4e	8gg#	8bb	4E	8gg#	8bb
.	.	8aa	8ccc	.	8aa	8ccc
4r	4r	8bb	8ddd	4r	8bb	8ddd
.	.	8aa	8ccc	.	8aa	8ccc
=54	=54	=54	=54	=54	=54	=54
4E	4e	8gg#	8bb	4E	8gg#	8bb
.	.	8aa	8ccc	.	8aa	8ccc
4r	4r	8bb	8ddd	4r	8bb	8ddd
.	.	8aa	8ccc	.	8aa	8ccc
=55	=55	=55	=55	=55	=55	=55
4E	4e	8gg#	4bb	4E	8gg#	4bb
.	.	8b	.	.	8b	.
4r	8r	4cc 4cc	4e	4r	4cc	4e
.	8g#	.	.	.	.	.
=56	=56	=56	=56	=56	=56	=56
2r	4a	8r	4f	2r	8r	4f
.	.	8a	.	.	8a	.
.	8r	4dd	4f#	.	4dd	4f#
.	8a	.	.	.	.	.
=57	=57	=57	=57	=57	=57	=57
2r	4b	8r	4g	2r	8r	4g
.	.	8b	.	.	8b	.
.	8r	4ee	4g#	.	4ee	4g#
.	8b	.	.	.	.	.
=58	=58	=58	=58	=58	=58	=58
8A	4cc	8r	8a	8A	8r	8a
8AA	.	8e	8ee	8AA	8e	8ee
8C	8e	[4a	8cc	8C	[4a	8cc
8D	8f	.	8b	8D	.	8b
=59	=59	=59	=59	=59	=59	=59
4E	4e	4a]	4cc	4E	4a]	4cc
4EE	4e	4g#	4b	4EE	4g#	4b
=60	=60	=60	=60	=60	=60	=60
4AA	4e	8a	4a	4AA	8a	4a
.	.	8b	.	.	8b	.
4r	8r	4cc	4e	4r	4cc	4e
.	8g#	.	.	.	.	.
=61	=61	=61	=61	=61	=61	=61
2r	4a	8r	4f	2r	8r	4f
.	.	8a	.	.	8a	.
.	8r	4dd	4f#	.	4dd	4f#
.	8a	.	.	.	.	.
=62	=62	=62	=62	=62	=62	=62
2r	4b	8r	4g	2r	8r	4g
.	.	8b	.	.	8b	.
.	8r	4ee	4g#	.	4ee	4g#
.	8b	.	.	.	.	.
=63	=63	=63	=63	=63	=63	=63
8A	4cc	8r	8a	8A	8r	8a
8AA	.	8e	8ee	8AA	8e	8ee
8C	8e	[4a	8cc	8C	[4a	8cc
8D	8f	.	8b	8D	.	8b
=64	=64	=64	=64	=64	=64	=64
4E	4e	4a]	4cc	4E	4a]	4cc
4EE	4e	4g#	4b	4EE	4g#	4b
=65	=65	=65	=65	=65	=65	=65
2AA	2e	2a	2a	2AA	2a	2a
=66	=66	=66	=66	=66	=66	=66
2r	2r	2r	2r	4f	4ccc	4aa
.	.	.	.	4e	4gg	4ccc
=67	=67	=67	=67	=67	=67	=67
2r	2r	2r	2r	4.d	4aa	4.ff
.	.	.	.	.	[4ff	.
.	.	.	.	8A	.	8ccc
=68	=68	=68	=68	=68	=68	=68
2r	2r	2r	2r	8B-	4ff]	8ddd
.	.	.	.	8A	.	8ccc
.	.	.	.	8G	4ee	4bb-
.	.	.	.	8c	.	.
=69	=69	=69	=69	=69	=69	=69
2r	2r	2r	2r	2F	2ff	2aa
=70	=70	=70	=70	=70	=70	=70
8F	4cc	4cc	4aa	8F	4cc	4aa
8G	.	.	.	8G	.	.
8A	4cc	4ff	4r	8A	4ff	4r
8B	.	.	.	8B	.	.
=71	=71	=71	=71	=71	=71	=71
8c	4.cc	4r	4gg	8c	4r	4gg
8d	.	.	.	8d	.	.
8e	.	4ee	4r	8e	4ee	4r
8c	8cc	.	.	8c	.	.
=72	=72	=72	=72	=72	=72	=72
8d	4a	4r	4ff	8d	4r	4ff
8c	.	.	.	8c	.	.
8B	4g	4dd	4r	8B	4dd	4r
8G	.	.	.	8G	.	.
=73	=73	=73	=73	=73	=73	=73
8c	2g	4r	4ee	8c	4r	4ee
8d	.	.	.	8d	.	.
8e	.	4gg	4r	8e	4gg	4r
8E	.	.	.	8E	.	.
=74	=74	=74	=74	=74	=74	=74
8F	4c	4r	4aa	8F	4r	4aa
8G	.	.	.	8G	.	.
8A	4f	4ff	4r	8A	4ff	4r
8F	.	.	.	8F	.	.
=75	=75	=75	=75	=75	=75	=75
8G	4d	4r	4b	8G	4r	4b
8G	.	.	.	8G	.	.
8A	8r	4ee	[4cc	8A	4ee	[4cc
8E	8g	.	.	8E	.	.
=76	=76	=76	=76	=76	=76	=76
8F	8a	2dd	4cc]	8F	2dd	4cc]
8D	8f	.	.	8D	.	.
8G	4g	.	4b	8G	.	4b
8GG	.	.	.	8GG	.	.
=77	=77	=77	=77	=77	=77	=77
2C	2e	2cc	2cc	4c	2cc	2cc
.	.	.	.	4B-	.	.
=78	=78	=78	=78	=78	=78	=78
2r	2r	2r	2r	4A	2r	4ff
.	.	.	.	4F	.	4aa
=79	=79	=79	=79	=79	=79	=79
4B-	4b-	4ff	4dd	4B-	4ff	4dd
4BB-	4f	4d	4B-	4BB-	4d	4B-
=80	=80	=80	=80	=80	=80	=80
2r	2r	2r	2r	4G	2r	4gg
.	.	.	.	4GG	.	4bb-
=81	=81	=81	=81	=81	=81	=81
4c	4cc	4gg	4ee	4c	4gg	4ee
4C	4g	4e	4c	4C	4e	4c
=82	=82	=82	=82	=82	=82	=82
2r	2r	2r	2r	4A	2r	4aa
.	.	.	.	4AA	.	4ccc
=83	=83	=83	=83	=83	=83	=83
4d	4d	4aa	2ff	4d	4aa	2ff
4D	4f	4dd	.	4D	4dd	.
=84	=84	=84	=84	=84	=84	=84
4E	2c	4cc	2gg	4E	4cc	2gg
4C	.	4b-	.	4C	4b-	.
=85	=85	=85	=85	=85	=85	=85
4F	4c	4a	4aa	4r	4a	2aa
4r	4r	4r	4r	4f	[4dd	.
=86	=86	=86	=86	=86	=86	=86
2r	2r	2r	2r	4e	4dd]	2gg
.	.	.	.	4A	[4cc	.
=87	=87	=87	=87	=87	=87	=87
2r	2r	2r	2r	4r	4cc]	2ff
.	.	.	.	4d	[4b-	.
=88	=88	=88	=88	=88	=88	=88
2r	2r	2r	2r	4c	4b-]	2ee
.	.	.	.	4F	[4a	.
=89	=89	=89	=89	=89	=89	=89
4r	4r	4r	4r	4r	8a]	2dd
.	.	.	.	.	8dd	.
[4B-	4b-	8gg	4dd	[4B-	8gg	.
.	.	8ff	.	.	8ff	.
=90	=90	=90	=90	=90	=90	=90
4B-]	4g	8ee	8.cc	4B-]	8ee	8.cc
.	.	8cc	.	.	8cc	.
.	.	.	16ee	.	.	16ee
8A	8cc	[4ff	8.ff	8A	[4ff	8.ff
8B-	8dd	.	.	8B-	.	.
.	.	.	16gg	.	.	16gg
=91	=91	=91	=91	=91	=91	=91
4c	4.cc	4ff]	4aa	4c	4ff]	4aa
4C	.	4ee	4gg	4C	4ee	4gg
.	8cc	.	.	.	.	.
=92	=92	=92	=92	=92	=92	=92
4F	4a	4ff	4ff	4F	4ff	4ff
4r	4r	4r	4dd	4r	4r	4dd
=93	=93	=93	=93	=93	=93	=93
4E	4e	4gg	4r	4E	4gg	4r
4r	4r	4r	4cc	4r	4r	4cc
=94	=94	=94	=94	=94	=94	=94
4D	4f	4ff	4r	4D	4ff	4r
4r	4r	4r	4b-	4r	4r	4b-
=95	=95	=95	=95	=95	=95	=95
4C	4g	4ee	4r	4C	4ee	4r
4r	4r	4r	4a	4r	4r	4a
=96	=96	=96	=96	=96	=96	=96
4BB-	4b-	4dd	4r	4BB-	4dd	4r
[4B-	4d	4r	4g	[4B-	4r	4g
=97	=97	=97	=97	=97	=97	=97
4B-]	4g	8e	8.cc	4B-]	8e	8.cc
.	.	8c	.	.	8c	.
.	.	.	16e	.	.	16e
8A	8c	[4f	8.f	8A	[4f	8.f
8B-	8d	.	.	8B-	.	.
.	.	.	16g	.	.	16g
=98	=98	=98	=98	=98	=98	=98
4c	4.c	4f]	4a	4c	4f]	4a
4C	.	4e	4g	4C	4e	4g
.	8c	.	.	.	.	.
=99	=99	=99	=99	=99	=99	=99
4F	4A	4f	4f	4F	4f	4f
4r	4r	4r	4dd	4r	4r	4dd
=100	=100	=100	=100	=100	=100	=100
4E	4e	4gg	4r	4E	4gg	4r
4r	4r	4r	4cc	4r	4r	4cc
=101	=101	=101	=101	=101	=101	=101
4D	4f	4ff	4r	4D	4ff	4r
4r	4r	4r	4b-	4r	4r	4b-
=102	=102	=102	=102	=102	=102	=102
4C	4g	4ee	4r	4C	4ee	4r
4r	4r	4r	4a	4r	4r	4a
=103	=103	=103	=103	=103	=103	=103
4BB-	4b-	4dd	4r	4BB-	4dd	4r
[4B-	4d	4r	4g	[4B-	4r	4g
=104	=104	=104	=104	=104	=104	=104
4B-]	4g	8e	8.cc	4B-]	8e	8.cc
.	.	8c	.	.	8c	.
.	.	.	16e	.	.	16e
8A	8c	[4f	8.f	8A	[4f	8.f
8B-	8d	.	.	8B-	.	.
.	.	.	16g	.	.	16g
=105	=105	=105	=105	=105	=105	=105
4c	4.c	4f]	4a	4c	4f]	4a
4C	.	4e	4g	4C	4e	4g
.	8c	.	.	.	.	.
=106	=106	=106	=106	=106	=106	=106
4F	4A	4f	4f	4F	4f	4f
4BB-	4f	8r	4dd	4BB-	8r	4dd
.	.	8b-	.	.	8b-	.
=107	=107	=107	=107	=107	=107	=107
4C	4c	4g	4e	4C	4g	4e
8r	8r	8r	8r	8r	8r	8r
8AA	8f	8a	8cc	8AA	8a	8cc
=108	=108	=108	=108	=108	=108	=108
4BB-	4f	8d	4dd	4BB-	8d	4dd
.	.	8e	.	.	8e	.
4FF	8A	[4f	8cc	4FF	[4f	8cc
.	8B-	.	16b-	.	.	16b-
.	.	.	16a	.	.	16a
=109	=109	=109	=109	=109	=109	=109
4C	4.c	4f]	2g	4C	4f]	2g
4CC	.	4e	.	4CC	4e	.
.	8c	.	.	.	.	.
=110	=110	=110	=110	=110	=110	=110
2FF	2A	2f	2f	2FF	2f	2f
==	==	==	==	==	==	==
*-	*-	*-	*-	*-	*-	*-
!!!RWG: This file only contains pitch and duration data.
!!!RWG: Transposing instruments are not transposed.
!!!RWG: Durations of rests and tied notes may be interpreted.
!!!RWG: Key is interpreted using the Humdrum key tool.
!!!SCA: 
!!!YOR: Chrysander Edition
!!!AGN: concerto grosso
!!!AFT: stage1
!!!ENC: F. Bennion
!!!END: 1997/04/15
!!!AST: baroque
!!!YEC: Copyright 1994, Center for Computer Assisted Research in the Humanities
!!!YEM: Rights to all derivative electronic formats reserved.
!!!YEM: Refer to licensing agreement for further details.
!!!YEN: United States of America
!!!EED: W.B. Hewlett
!!!KEY: 4077695180
!!!EMD: Converted from MuseData to Humdrum Aug 9, 1999, by Bret Aarden using muse2kern.
!!!VTS: 840138659
